source/assets/img/inout-facebook-hover.svg

<?xml version="1.0" encoding="UTF-8"?>
<svg width="36px" height="36px" viewBox="0 0 36 36" version="1.1" xmlns="http://www.w3.org/2000/svg" xmlns:xlink="http://www.w3.org/1999/xlink">
    <!-- Generator: Sketch 42 (36781) - http://www.bohemiancoding.com/sketch -->
    <title>Group 8@2x</title>
    <desc>Created with Sketch.</desc>
    <defs></defs>
    <g id="Page-1" stroke="none" stroke-width="1" fill="none" fill-rule="evenodd">
        <g id="ComingSoon" transform="translate(-1366.000000, -1842.000000)">
            <g id="Group-8" transform="translate(1366.000000, 1842.000000)">
                <path d="M35.2858677,23.00323 L35.2858677,23.00323 C32.522562,32.550105 22.5434361,38.0491284 12.9966831,35.2859448 L12.9966831,35.2859448 C3.4500522,32.5227612 -2.0490933,22.543269 0.714212399,12.9968823 L0.714212399,12.9968823 C3.4775181,3.45000726 13.456644,-2.04901614 23.0032749,0.714167455 L23.003397,0.714167455 C32.5500278,3.47735106 38.0490513,13.4568433 35.2858677,23.00323 Z" id="Shape-Copy-17" fill="#494976"></path>
                <path d="M23.7764892,11 L12.2568359,11 C11.0103759,11 10,12.0102539 10,13.2568359 L10,24.7763671 C10,26.0229491 11.010376,27.033203 12.2568359,27.033203 L17.4997558,27.033203 L17.4997558,21.1811522 L15.5177001,21.1811522 L15.5177001,18.8979491 L17.4997558,18.8979491 L17.4997558,17.217285 C17.4997558,16.2636717 17.7631835,15.5239256 18.290039,14.9970702 C18.8168945,14.4702148 19.5318603,14.2065429 20.4351806,14.2065429 C21.3383788,14.2065429 21.923706,14.2402343 22.1914062,14.3071288 L22.1914062,16.3388671 L20.9870605,16.3388671 C20.552246,16.3388671 20.255371,16.4311523 20.0964355,16.6152343 C19.9375,16.7988281 19.8580322,17.0751952 19.8580322,17.442871 L19.8580322,18.8979491 L22.1159668,18.8979491 L21.8150635,21.1811522 L19.8580323,21.1811522 L19.8580323,27.033203 L23.7764893,27.033203 C25.0229493,27.033203 26.0333252,26.0229491 26.0333252,24.7763671 L26.0333252,13.2568359 C26.0333251,12.0102539 25.0229491,11 23.7764892,11 Z" id="Shape-Copy-25" fill="#00FFC2"></path>
            </g>
        </g>
    </g>
</svg>

<svg width="36" height="36" viewBox="0 0 36 36" xmlns="http://www.w3.org/2000/svg"><title>Group 8@2x</title><desc>Created with Sketch.</desc><g fill="none"><path d="M35.286 23.003c-2.763 9.547-12.742 15.046-22.289 12.283s-15.046-12.743-12.282-22.289c2.763-9.547 12.742-15.046 22.289-12.283s15.046 12.743 12.282 22.289z" fill="#494976"/><path d="M23.776 11h-11.52c-1.246 0-2.257 1.01-2.257 2.257v11.52c0 1.247 1.01 2.257 2.257 2.257h5.243v-5.852h-1.982v-2.283h1.982v-1.681c0-.954.263-1.693.79-2.22.527-.527 1.242-.791 2.145-.791s1.489.034 1.756.101v2.032h-1.204c-.435 0-.732.092-.891.276-.159.184-.238.46-.238.828v1.455h2.258l-.301 2.283h-1.957v5.852h3.918c1.246 0 2.257-1.01 2.257-2.257v-11.52c0-1.247-1.01-2.257-2.257-2.257z" fill="#00FFC2"/></g></svg>
